en/_assets/wiki/svg/copy-pages.svg

<svg xmlns="http://www.w3.org/2000/svg" xmlns:xlink="http://www.w3.org/1999/xlink" width="12" height="14" class="yc-icon" fill="currentColor" stroke="none" aria-hidden="true"><svg viewBox="0 0 12 14" xmlns="http://www.w3.org/2000/svg"><path d="M11.3066 2.30078L10.0117 1.00586C9.80859 0.802734 9.42773 0.625 9.14844 0.625H4.78125C4.0957 0.625 3.5625 1.18359 3.5625 1.84375V3.0625H1.53125C0.845703 3.0625 0.3125 3.62109 0.3125 4.28125V12.4062C0.3125 13.0918 0.845703 13.625 1.53125 13.625H7.21875C7.87891 13.625 8.4375 13.0918 8.4375 12.4062V11.1875H10.4688C11.1289 11.1875 11.6875 10.6543 11.6875 9.96875V3.16406C11.6875 2.88477 11.5098 2.50391 11.3066 2.30078ZM7.06641 12.4062H1.68359C1.58203 12.4062 1.53125 12.3555 1.53125 12.2539V4.43359C1.53125 4.35742 1.58203 4.28125 1.68359 4.28125H3.5625V9.96875C3.5625 10.6543 4.0957 11.1875 4.78125 11.1875H7.21875V12.2539C7.21875 12.3555 7.14258 12.4062 7.06641 12.4062ZM10.3164 9.96875H4.93359C4.83203 9.96875 4.78125 9.91797 4.78125 9.81641V1.99609C4.78125 1.91992 4.83203 1.84375 4.93359 1.84375H7.625V4.07812C7.625 4.43359 7.87891 4.6875 8.23438 4.6875H10.4688V9.81641C10.4688 9.91797 10.3926 9.96875 10.3164 9.96875ZM10.4688 3.46875H8.84375V1.84375H9.07227C9.12305 1.84375 9.14844 1.86914 9.17383 1.89453L10.418 3.13867C10.4434 3.16406 10.4688 3.18945 10.4688 3.24023V3.46875Z"></path></svg></svg>

<svg xmlns="http://www.w3.org/2000/svg" width="12" height="14" fill="currentColor" aria-hidden="true" class="yc-icon">
    <svg xmlns="http://www.w3.org/2000/svg" viewBox="0 0 12 14">
        <path d="m11.307 2.3-1.295-1.294C9.809.803 9.428.625 9.148.625H4.781c-.685 0-1.218.559-1.218 1.219v1.218H1.53a1.22 1.22 0 0 0-1.218 1.22v8.124c0 .686.533 1.219 1.218 1.219h5.69c.66 0 1.218-.533 1.218-1.219v-1.219h2.032c.66 0 1.219-.533 1.219-1.218V3.164c0-.28-.178-.66-.381-.863Zm-4.24 10.106H1.683c-.102 0-.153-.05-.153-.152v-7.82c0-.077.051-.153.153-.153h1.879V9.97c0 .685.533 1.219 1.218 1.219h2.44v1.066c0 .101-.076.152-.153.152Zm3.25-2.437H4.933c-.102 0-.153-.051-.153-.153v-7.82c0-.076.051-.152.153-.152h2.691v2.234c0 .356.254.61.61.61h2.234v5.128c0 .102-.076.153-.153.153Zm.152-6.5H8.844V1.844h.228c.051 0 .076.025.102.05l1.244 1.245c.025.025.05.05.05.101v.229Z"/>
    </svg>
</svg>
